fs/animal_rabbit_32_filled.svg

<svg viewBox="0 0 32 32" fill="none" xmlns="http://www.w3.org/2000/svg" height="1em" width="1em">
  <path d="M16.3368 4.91703C17.5191 3.69411 19.4803 3.6968 20.6593 4.92295L27.8322 12.3828C29.155 13.4818 30 15.1424 30 16.9996C30 20.2782 27.3704 22.9426 24.1053 22.9987V23C24.1053 25.2092 22.3144 27 20.1053 27H18C18 27 18 27.0001 18 27V24.5C18 22.0147 15.9853 20 13.5 20H12C11.4477 20 11 20.4477 11 21C11 21.5523 11.4477 22 12 22H13.5C14.8807 22 16 23.1193 16 24.5V27C16 27 16 27 16 27L11 27C8.23858 27 6 24.7615 6 22V19.9C3.71776 19.4367 2 17.419 2 15C2 12.2386 4.23858 10 7 10C8.63694 10 10.0891 10.787 11.0003 12H17.5995C17.7351 11.7347 17.8914 11.482 18.0664 11.2439L16.1624 8.89379C15.2071 7.71465 15.2819 6.00805 16.3368 4.91703Z" fill="#212121"/>
</svg>

<svg viewBox="0 0 32 32" fill="none" xmlns="http://www.w3.org/2000/svg" height="1em" width="1em">
  <path d="M16.337 4.917a3.002 3.002 0 0 1 4.322.006l7.173 7.46a6 6 0 0 1-3.727 10.616V23a4 4 0 0 1-4 4H18v-2.5a4.5 4.5 0 0 0-4.5-4.5H12a1 1 0 1 0 0 2h1.5a2.5 2.5 0 0 1 2.5 2.5V27h-5a5 5 0 0 1-5-5v-2.1A5.002 5.002 0 0 1 7 10a4.99 4.99 0 0 1 4 2h6.6c.135-.265.291-.518.466-.756l-1.904-2.35a3.002 3.002 0 0 1 .175-3.977Z" fill="#212121"/>
</svg>
